src/dsmComponents/Icons/user-profile-12px.svg

<?xml version="1.0" encoding="UTF-8"?>
<svg width="12px" height="12px" viewBox="0 0 12 12" version="1.1" xmlns="http://www.w3.org/2000/svg" xmlns:xlink="http://www.w3.org/1999/xlink">
    <!-- Generator: Sketch 59.1 (86144) - https://sketch.com -->
    <title>user-profile-12px</title>
    <desc>Created with Sketch.</desc>
    <defs>
        <path d="M6,7.5 C7.24264069,7.5 8.25,6.49264069 8.25,5.25 C8.25,4.00735931 7.24264069,3 6,3 C4.75735931,3 3.75,4.00735931 3.75,5.25 C3.75,6.49264069 4.75735931,7.5 6,7.5 Z M6,0 C2.7,0 0,2.7 0,6 C0,9.3 2.7,12 6,12 C9.3,12 12,9.3 12,6 C12,2.7 9.3,0 6,0 Z M9,9.3 C8.55,8.775 7.95,8.25 6.75,8.25 L5.25,8.25 C4.05,8.25 3.45,8.775 3,9.3 C2.1,8.475 1.5,7.35 1.5,6 C1.5,3.525 3.525,1.5 6,1.5 C8.475,1.5 10.5,3.525 10.5,6 C10.5,7.35 9.9,8.475 9,9.3 Z" id="path-1"></path>
    </defs>
    <g id="Final" stroke="none" stroke-width="1" fill="none" fill-rule="evenodd">
        <g id="All-Nucleo-Icons" transform="translate(-174.000000, -6934.000000)">
            <g id="Solo/Nucleo/12px/user-profile" transform="translate(168.000000, 6928.000000)">
                <g id="circle-08" transform="translate(6.000000, 6.000000)">
                    <g id="Colour/Default-Colour">
                        <mask id="mask-2" fill="white">
                            <use xlink:href="#path-1"></use>
                        </mask>
                        <g id="Mask" fill-rule="nonzero"></g>
                        <g id="colour/neutral/chia" mask="url(#mask-2)" fill="#737373">
                            <g transform="translate(-18.000000, -18.000000)" id="Colour">
                                <rect x="0" y="0" width="48" height="48"></rect>
                            </g>
                        </g>
                    </g>
                </g>
            </g>
        </g>
    </g>
</svg>

<svg width="12" height="12" xmlns="http://www.w3.org/2000/svg" xmlns:xlink="http://www.w3.org/1999/xlink"><defs><path d="M6 7.5A2.25 2.25 0 106 3a2.25 2.25 0 000 4.5zM6 0C2.7 0 0 2.7 0 6s2.7 6 6 6 6-2.7 6-6-2.7-6-6-6zm3 9.3c-.45-.525-1.05-1.05-2.25-1.05h-1.5c-1.2 0-1.8.525-2.25 1.05-.9-.825-1.5-1.95-1.5-3.3 0-2.475 2.025-4.5 4.5-4.5s4.5 2.025 4.5 4.5c0 1.35-.6 2.475-1.5 3.3z" id="user-profile-12px_svg__a"/></defs><use fill="#737373" xlink:href="#user-profile-12px_svg__a" fill-rule="evenodd"/></svg>
